school/img/country/LR.svg

<svg width="13" height="12" viewBox="0 0 13 12" fill="none" xmlns="http://www.w3.org/2000/svg">
<rect x="0.25" y="0.25" width="12.5" height="11.5" rx="1.75" fill="white" stroke="#F5F5F5" stroke-width="0.5"/>
<mask id="mask0" mask-type="alpha" maskUnits="userSpaceOnUse" x="0" y="0" width="13" height="12">
<rect x="0.25" y="0.25" width="12.5" height="11.5" rx="1.75" fill="white" stroke="white" stroke-width="0.5"/>
</mask>
<g mask="url(#mask0)">
<path fill-rule="evenodd" clip-rule="evenodd" d="M13 0H6.19045V1.6H13V0ZM13 3.2H6.19045V4.8H13V3.2ZM6.19045 6.4H13V8.00001H6.19045V6.4ZM13 9.6H0V11.2H13V9.6Z" fill="#E1244A"/>
<rect width="6.19048" height="8" fill="#0C3F8E"/>
<path fill-rule="evenodd" clip-rule="evenodd" d="M3.0953 4.93601L2.0037 5.94165L2.40647 4.28925L1.32905 3.25837L2.66958 3.24277L3.0953 1.60001L3.52103 3.24277L4.86155 3.25837L3.78414 4.28925L4.1869 5.94165L3.0953 4.93601Z" fill="white"/>
</g>
</svg>

<svg width="13" height="12" fill="none" xmlns="http://www.w3.org/2000/svg"><rect x=".25" y=".25" width="12.5" height="11.5" rx="1.75" fill="#fff" stroke="#F5F5F5" stroke-width=".5"/><mask id="a" maskUnits="userSpaceOnUse" x="0" y="0" width="13" height="12"><rect x=".25" y=".25" width="12.5" height="11.5" rx="1.75" fill="#fff" stroke="#fff" stroke-width=".5"/></mask><g mask="url(#a)"><path fill-rule="evenodd" clip-rule="evenodd" d="M13 0H6.19v1.6H13V0zm0 3.2H6.19v1.6H13V3.2zM6.19 6.4H13V8H6.19V6.4zM13 9.6H0v1.6h13V9.6z" fill="#E1244A"/><path fill="#0C3F8E" d="M0 0h6.19v8H0z"/><path fill-rule="evenodd" clip-rule="evenodd" d="M3.095 4.936L2.004 5.942l.402-1.653L1.33 3.26l1.34-.016.426-1.643.426 1.643 1.34.015L3.785 4.29l.403 1.653-1.092-1.006z" fill="#fff"/></g></svg>
